src/_includes/partials/brand.svg

<?xml version="1.0" encoding="UTF-8"?>
<svg width="114px" height="24px" viewBox="0 0 114 24" version="1.1" xmlns="http://www.w3.org/2000/svg" xmlns:xlink="http://www.w3.org/1999/xlink">
    <title>logo</title>
    <g id="Landings" stroke="none" stroke-width="1" fill="none" fill-rule="evenodd">
        <g id="Spark" transform="translate(-32.000000, -32.000000)" fill="#000000" fill-rule="nonzero">
            <g id="Top" transform="translate(32.000000, 32.000000)">
                <path d="M9.2,24 C15.3333333,24 19.4333333,20.7333333 19.4333333,14.9 C19.4333333,11.6333333 17.2666667,9.93333333 11.8,8.76666667 C9.6,8.3 9.16666667,8.03333333 9.16666667,7.2 C9.16666667,6.56666667 9.7,5.9 11.0333333,5.9 L11.8666667,5.9 C12.6,5.9 12.9333333,6.03333333 12.9333333,6.73333333 C12.9333333,6.83333333 12.9333333,6.96666667 12.9,7.13333333 L19.8666667,7.13333333 C19.9666667,6.6 20.0333333,6.1 20.0333333,5.6 C20.0333333,2.33333333 17.7666667,0 12.9666667,0 L11.3,0 C5.86666667,0 1.93333333,3.4 1.93333333,8.53333333 C1.93333333,12.6 5.36666667,13.8333333 10.8,15.0333333 C11.8666667,15.2666667 12.2,15.6333333 12.2,16.3 C12.2,17.2666667 11.6,18.1 10.3,18.1 L8.86666667,18.1 C7.9,18.1 7.16666667,17.9333333 7.16666667,17.1 C7.16666667,17 7.16666667,16.8666667 7.2,16.7333333 L0.133333333,16.7333333 C0.0333333333,17.2333333 0,17.7 0,18.1666667 C0,21.5666667 2.5,24 7.8,24 L9.2,24 Z M27.9,23.6666667 L29.1666667,16.4333333 L33.6666667,16.4333333 C38.2333333,16.4333333 41.6333333,13.6 42.3666667,9.13333333 L42.5333333,8.1 C42.6333333,7.53333333 42.6666667,7 42.6666667,6.5 C42.6666667,2.83333333 40.2333333,0.333333333 36.1333333,0.333333333 L24.9333333,0.333333333 L20.8333333,23.6666667 L27.9,23.6666667 Z M32.8,10.5666667 L30.2,10.5666667 L30.9666667,6.2 L33.9333333,6.2 C34.8666667,6.2 35.3666667,6.5 35.3666667,7.5 C35.3666667,7.8 35.3666667,7.93333333 35.3,8.26666667 L35.2,8.73333333 C35.0333333,9.56666667 34.2,10.5666667 32.8,10.5666667 Z M60.7,0.333333333 L64.7333333,23.6666667 L57.3,23.6666667 L57,20.2 L50.0333333,20.2 L48.4333333,23.6666667 L40.8,23.6666667 L53.3333333,0.333333333 L60.7,0.333333333 Z M55.5254977,6.76073771 L53.0826341,11.6583435 L55.3265761,11.6683577 L55.4745023,15.2392623 L57.9173659,10.3416565 L55.6734239,10.3316423 L55.5254977,6.76073771 Z M74.2,23.6666667 L75.5666667,15.8666667 L77.2333333,15.8666667 L79.0666667,23.6666667 L86.7666667,23.6666667 L84.2,14.7 C86.7,13.7 88.4,11.6333333 88.9333333,8.56666667 L89.0333333,8 C89.1333333,7.43333333 89.1666667,6.9 89.1666667,6.4 C89.1666667,2.7 86.7,0.333333333 82.6,0.333333333 L71.2333333,0.333333333 L67.1333333,23.6666667 L74.2,23.6666667 Z M79.3333333,10.1666667 L76.5666667,10.1666667 L77.2666667,6.2 L80.2,6.2 C81.2,6.2 81.8666667,6.36666667 81.8666667,7.4 C81.8666667,7.56666667 81.8333333,7.73333333 81.8,7.96666667 L81.7666667,8.16666667 C81.6,9.16666667 80.8,10.1666667 79.3333333,10.1666667 Z M95.7333333,23.6666667 L96.5666667,18.8333333 L99.0666667,16.1 L101.566667,23.6666667 L109.566667,23.6666667 L104.266667,10.4 L113.466667,0.333333333 L105.166667,0.333333333 L98.3666667,8.73333333 L99.8333333,0.333333333 L92.7666667,0.333333333 L88.6666667,23.6666667 L95.7333333,23.6666667 Z" id="logo" style="mix-blend-mode: multiply;"></path>
            </g>
        </g>
    </g>
</svg>

<svg xmlns="http://www.w3.org/2000/svg" viewBox="0 0 114 24"><g id="Landings" stroke="none" stroke-width="1" fill="none" fill-rule="evenodd"><g id="Spark" transform="translate(-32 -32)" fill="#000" fill-rule="nonzero"><g id="Top" transform="translate(32 32)"><path d="M9.2 24c6.1 0 10.2-3.3 10.2-9.1 0-3.3-2.1-5-7.6-6.1-2.2-.5-2.6-.8-2.6-1.6 0-.6.5-1.3 1.8-1.3h.9c.7 0 1 .1 1 .8v.4h7l.1-1.5C20 2.3 17.8 0 13 0h-1.7C5.9 0 1.9 3.4 1.9 8.5c0 4.1 3.5 5.3 8.9 6.5 1 .3 1.4.6 1.4 1.3 0 1-.6 1.8-1.9 1.8H8.9c-1 0-1.7-.2-1.7-1v-.4h-7c-.2.5-.2 1-.2 1.5C0 21.6 2.5 24 7.8 24h1.4zm18.7-.3l1.3-7.3h4.5c4.5 0 8-2.8 8.7-7.3l.1-1 .2-1.6c0-3.7-2.5-6.2-6.6-6.2H25l-4 23.4h7zm4.9-13.1h-2.6l.8-4.4h3c.9 0 1.4.3 1.4 1.3l-.1.8-.1.4c-.2.9-1 1.9-2.4 1.9zM60.7.3l4 23.4h-7.4l-.3-3.5h-7l-1.6 3.5h-7.6L53.3.3h7.4zm-5.2 6.5l-2.4 4.9h2.2l.2 3.5 2.4-4.9h-2.2l-.2-3.5zm18.7 16.9l1.4-7.8h1.6l1.9 7.8h7.7l-2.6-9c2.5-1 4.2-3 4.7-6.1L89 8l.2-1.6c0-3.7-2.5-6-6.6-6H71.2l-4 23.3h7zm5.1-13.5h-2.7l.7-4h2.9c1 0 1.7.2 1.7 1.2l-.1.6v.2c-.2 1-1 2-2.5 2zm16.4 13.5l.9-4.9 2.5-2.7 2.5 7.6h8l-5.3-13.3 9.2-10h-8.3l-6.8 8.3L99.8.3h-7l-4.1 23.4h7z" id="logo" style="mix-blend-mode:multiply"/></g></g></g></svg>
